web/assets/svg/navigation/nav-platform.svg

<svg xmlns="http://www.w3.org/2000/svg" viewBox="0 0 56.69 56.69"><g id="app-text"><path d="m8.28 52.78 25.47-28.91L8.06 12.46a4.61 4.61 0 0 0-1 2.79l-.01 17.18L7 49.56a4.64 4.64 0 0 0 1.28 3.22" style="fill:#bf2f85"/><path d="m8.06 12.46 25.69 11.41L39.61 4.2a9.85 9.85 0 0 0-9.17-1.12L15 9l-4.83 1.86a4.62 4.62 0 0 0-2.06 1.57" style="fill:#ed4f9b"/><path d="m39.61 4.2-5.86 19.67h12.84l-3-13.68a9.77 9.77 0 0 0-4-6" style="fill:#bed757"/><path d="M11.68 54.26h18.65a4.58 4.58 0 0 0 1.56-.26l1.86-30.12-25.47 28.9a4.66 4.66 0 0 0 3.4 1.48" style="fill:#59a073"/><path d="m49.59 37.76-3-13.89H33.75L31.89 54a4.51 4.51 0 0 0 1.23-.64l14.22-10.5.45-.33a4.68 4.68 0 0 0 1.8-4.76" style="fill:#88cca6"/></g></svg>

<svg xmlns="http://www.w3.org/2000/svg" viewBox="0 0 56.69 56.69">
  <g id="app-text">
    <path d="M8.28,52.78,33.75,23.87,8.06,12.46a4.61,4.61,0,0,0-1,2.79L7.05,32.43,7,49.56a4.64,4.64,0,0,0,1.28,3.22" style="fill: #bf2f85"/>
    <path d="M8.06,12.46,33.75,23.87,39.61,4.2a9.85,9.85,0,0,0-9.17-1.12L15,9l-4.83,1.86a4.62,4.62,0,0,0-2.06,1.57" style="fill: #ed4f9b"/>
    <path d="M39.61,4.2,33.75,23.87H46.59l-3-13.68a9.77,9.77,0,0,0-4-6" style="fill: #bed757"/>
    <path d="M11.68,54.26H30.33A4.58,4.58,0,0,0,31.89,54l1.86-30.12L8.28,52.78a4.66,4.66,0,0,0,3.4,1.48" style="fill: #59a073"/>
    <path d="M49.59,37.76l-3-13.89H33.75L31.89,54a4.51,4.51,0,0,0,1.23-.64l14.22-10.5.45-.33a4.68,4.68,0,0,0,1.8-4.76" style="fill: #88cca6"/>
  </g>
</svg>
